X: 1
T: Darby the Driver
O: O'Neill's
R: jig
Z: 2006 John Chambers <jc:trillian.mit.edu>
M: 6/8
L: 1/8
K: Ador
G \
| "Am"EAA ABc | "G"BAA "Am"A2B | "G"d2e dBg | "G"BGG "Em"G2A \
| "Am"EAA AGA | "G"BAA "Am"A2B | "G"d2e dBg | "Em"BAA "Am"A2 :|
|: e \
| "Am"a^ga a2e | "Am"a^ga a2e | "G"g{a}bg "C"ege | "G"dBG "Em"G2e \
| "Am"a^ga a2e | "D7"def "G"g2g | "C"ege "G"dBg | "Em"BAA "Am"A2 :|
